assets/images/logo-uni-iade_es.svg

<svg fill="none" height="26" viewBox="0 0 130 26" width="130" xmlns="http://www.w3.org/2000/svg" xmlns:xlink="http://www.w3.org/1999/xlink"><clipPath id="a"><path d="m0 0h130v26h-130z"/></clipPath><mask id="b" height="26" maskUnits="userSpaceOnUse" width="130" x="0" y="0"><path d="m0 0h130v26h-130z" fill="#fff"/></mask><mask id="c" height="26" maskUnits="userSpaceOnUse" width="130" x="0" y="0"><path d="m0 0h130v26h-130z" fill="#fff"/></mask><mask id="d" height="27" maskUnits="userSpaceOnUse" width="130" x="0" y="0"><path d="m0 0h130v26.0072h-130z" fill="#fff"/></mask><g clip-path="url(#a)"><g mask="url(#b)"><g mask="url(#c)"><g mask="url(#d)"><path d="m1.98038 3.45743c.44563 0 .87301-.17703 1.18812-.49213.3151-.31511.49213-.74249.49213-1.18812s-.17703-.873008-.49213-1.188116c-.31511-.315108-.74249-.492134-1.18812-.492134-.22077-.0005991-.43949.0424-.64361.126531s-.38961.207737-.545842.363728c-.156232.15599-.280125.341294-.364572.545281-.084446.20398-.127784.42264-.127527.64341.000516.44582.177845.87323.493085 1.18846.315236.31525.742646.49257 1.188466.49309zm58.00142 12.77967h2.4005c.0552-.403.0793-.819.0793-1.2415 0-5.45417-4.4577-9.91187-9.9184-9.91187-5.0108 0-9.1715 3.7544-9.826 8.58197v-13.54082h-2.483v8.33105c-1.8129-2.06375-4.4785-3.37545-7.4386-3.37545-4.9647 0-9.0987 3.6933-9.7988 8.47212v-8.47212h-2.483v3.37545c-1.7849-2.0241-4.3777-3.32345-7.2637-3.37545h-.1742c-4.98097.08905-9.23977 3.8675-9.84167 8.70152v-8.66122h-2.504451v19.82372h2.504451v-8.738c.60515 4.8367 4.86395 8.619 9.84487 8.7074h.1742c2.8828-.052 5.4789-1.3455 7.2644-3.3689v3.3689h2.4824v-8.4747c.7033 4.784 4.8366 8.4747 9.7987 8.4747 2.9595 0 5.6258-1.3052 7.4386-3.3689v3.3689h2.483v-8.5884c.6539 4.8405 4.8178 8.5891 9.8254 8.5891 4.0879 0 7.607-2.4947 9.126-6.0411h-2.7846c-1.3117 2.1339-3.666 3.5587-6.3414 3.5587-3.6777 0-6.7385-2.6877-7.3378-6.1977h14.7764zm-46.8175 6.1971c-4.06317-.0488-7.52702-3.3657-7.52702-7.4386 0-4.0723 3.46385-7.38337 7.52702-7.43212 4.054.0455 7.3502 3.37222 7.3502 7.43212 0 4.0605-3.2955 7.3905-7.3502 7.4386zm19.6313 0c-4.0872 0-7.4321-3.3352-7.4321-7.4386 0-4.1028 3.3449-7.43212 7.4321-7.43212 4.0885 0 7.4386 3.34492 7.4386 7.43212 0 4.0885-3.3384 7.4386-7.4386 7.4386zm19.7476-14.87072c3.6725 0 6.7386 2.69032 7.3385 6.19122h-14.6763c.5986-3.5009 3.6601-6.19122 7.3378-6.19122zm19.6014 5.68032v-8.20557h4.3258v.8892h-3.3508v2.3543h3.3508v.90805h-3.3508v3.14602h3.3508v.908zm8.9674-4.55517c.535.2288.9354.5317 1.2071.90805.2723.3757.4069.82552.4069 1.33902-.0009.7553-.2414 1.3637-.7215 1.8252-.4802.4615-1.1161.6918-1.9078.6909-.6478 0-1.1899-.1651-1.6263-.4953-.4376-.3306-.7332-.8003-.8866-1.4092l.8866-.4374c.1183.4983.3148.8744.5896 1.1284.2756.2567.6181.3848 1.0335.3848.4896 0 .8861-.1406 1.1895-.4219.302-.2816.4528-.6485.4524-1.1004 0-.3666-.104-.6851-.3179-.9568-.2106-.27259-.5295-.50204-.9568-.68837l-.9971-.4251c-.5442-.22663-.9509-.52-1.22-.8801-.2659-.3575-.4004-.7891-.4004-1.287 0-.58435.2171-1.06405.6513-1.44625.4342-.38177.9875-.57243 1.6601-.572.4931 0 .9202.104 1.2811.312.3608.21125.6422.51675.8437.923l-.8066.51675c-.1833-.3172-.3894-.55337-.6182-.7085-.2275-.15573-.4978-.23703-.7735-.2327-.3666.00043-.666.11245-.8983.33605-.2327.22295-.3516.5109-.3516.85605 0 .2938.0916.54405.2691.75855.18.21385.4582.4004.8346.5655l1.1706.51675zm9.5726-1.68805c-.3918-.42467-.8106-.73948-1.2565-.94445-.4465-.20475-.936-.3055-1.4742-.3055-.4362.00149-.8677.09079-1.2688.2626-.4035.16984-.7685.41945-1.0731.73385-.306.31159-.5461.68165-.7059 1.0881-.1608.42494-.2406.87623-.2353 1.33055-.0009.38133.0459.73277.1404 1.05427.0949.3211.232.6175.4186.8866.3129.4513.7292.8213 1.2142 1.079.4783.2528 1.0118.3833 1.5528.3796.5046.0043 1.0034-.1066 1.4586-.3243.4492-.2171.8561-.5408 1.2292-.9685v1.2961c-.8047.5855-1.7751.8993-2.7703.8957-.865-.0002-1.7095-.2637-2.4213-.7553-.5988-.416-1.0553-.9267-1.3695-1.5321-.3153-.6045-.4739-1.27137-.4739-1.99287 0-.6331.104-1.2051.3179-1.72445.2209-.53173.5498-1.01181.9659-1.40985.4003-.38925.8729-.6966 1.391-.9048.5076-.2015 1.064-.299 1.6666-.299.4682-.00209.9336.07099 1.3786.21645.4442.14387.8834.36703 1.3176.6695v1.27205zm2.6169-1.963v5.10642c.0004.8281.1768 1.4365.5291 1.8252.3516.388.908.5837 1.6601.5837.752 0 1.3084-.195 1.6633-.5837.3519-.3887.5281-.9971.5285-1.8252v-5.10642h.9906v5.10572c.0004 1.1085-.2635 1.939-.7917 2.4915-.5295.5503-1.3265.8255-2.3907.8255-1.0641 0-1.8558-.275-2.3849-.8255-.5295-.5504-.7945-1.3808-.7949-2.4915v-5.10572zm7.3135 8.20622v-8.20557h4.326v.8892h-3.351v2.3543h3.351v.90805h-3.351v3.14602h3.351v.908zm5.98 0v-8.20557h.975v7.27607h3.101v.9295zm7.83-8.52992 3.733 8.52992h-1.058l-1.063-2.5155h-3.208l-1.064 2.5155h-1.058l3.721-8.52992zm0 2.158-1.306 3.0212h2.611zm-42.2836 18.01802v-8.2069h1.5743c1.1648 0 1.9877.0585 2.4615.1774.454.1079.8807.3087 1.2532.5896.4716.3628.8406.8422 1.0706 1.391.2418.5646.3629 1.215.3633 1.9513 0 .7364-.1189 1.378-.3607 1.9409-.2306.5484-.6005 1.027-1.0732 1.3884-.3575.2749-.767.4738-1.2226.5902-.4585.1183-1.172.1772-2.1405.1768h-1.9292zm.9873-.9204h.624c1.0093.0004 1.7084-.0436 2.0976-.132.3882-.0884.7113-.2381.9691-.4491.3433-.2913.6071-.6647.767-1.0855.1751-.4433.2628-.9508.2633-1.5223 0-.572-.0858-1.079-.26-1.5139-.1618-.4188-.4267-.7899-.7703-1.079-.2574-.2171-.5876-.3705-.9847-.4615-.3974-.0918-1.0914-.1378-2.082-.1378h-.624v6.3837zm7.3379.9197v-8.2056h4.3264v.8899h-3.3508v2.3536h3.3508v.9081h-3.3508v3.146h3.3508v.908zm9.3645 0v-8.2056h1.575c1.1652 0 1.9866.0592 2.4641.1775.454.1079.8807.3086 1.2532.5895.4716.3628.8406.8423 1.0706 1.391.2418.5647.3629 1.2151.3633 1.9513 0 .7365-.1189 1.378-.3607 1.9409-.2303.5486-.6003 1.0273-1.0732 1.3884-.3575.275-.767.4739-1.2259.5902-.4584.1183-1.1708.1773-2.1372.1768zm.988-.9197h.6234c1.0096.0004 1.7088-.0436 2.0975-.132s.7118-.2381.9692-.4491c.3435-.2912.6076-.6646.7676-1.0855.1768-.4433.2626-.951.2626-1.5223 0-.572-.0858-1.079-.26-1.5139-.1617-.4188-.4267-.7899-.7702-1.079-.2568-.2171-.587-.3705-.9848-.4615-.3973-.0918-1.0913-.1378-2.0819-.1378h-.6234v6.3837zm7.347.9197v-8.2056h.975v8.205zm5.9459-4.5552c.535.2293.937.5319 1.208.9081.272.3757.407.8255.407 1.339 0 .7553-.239 1.3637-.722 1.8252-.48.461-1.116.6914-1.907.6909-.646 0-1.19-.1651-1.627-.4953-.438-.3306-.734-.8003-.887-1.4092l.887-.4374c.119.4983.316.8744.59 1.1284.275.2569.62.3854 1.033.3854.49 0 .887-.1408 1.19-.4225.302-.2808.453-.6476.452-1.1004 0-.3662-.106-.6851-.318-.9568-.211-.2722-.529-.5014-.954-.6877l-.996-.4251c-.544-.2262-.951-.5198-1.22-.8808-.269-.3575-.401-.7884-.401-1.287 0-.5843.217-1.064.652-1.4462.434-.3818.987-.5725 1.66-.572.492 0 .919.104 1.281.312.361.2112.641.5167.844.923l-.808.5174c-.183-.3177-.388-.5543-.617-.7098-.228-.1551-.498-.2362-.774-.2321-.367.0005-.666.1125-.899.3361-.232.2236-.351.5109-.351.856 0 .2938.088.5447.269.7586.18.2138.458.4004.834.5655l1.172.5167zm2.914 4.5552v-8.2056h4.327v.8899h-3.352v2.3536h3.352v.9081h-3.352v3.146h3.352v.908zm5.98 0v-8.5299l6.002 6.5585v-6.2342h.929v8.5235l-6.001-6.4851v6.164h-.93zm5.112-10.5813c-.076.3822-.208.6725-.394.871-.09.0978-.2.1752-.322.227s-.254.0768-.387.0733c-.049 0-.105-.0063-.169-.0189-.068-.0111-.135-.0263-.201-.0455l-.538-.1469c-.047-.0148-.095-.027-.144-.0364-.043-.0097-.087-.0149-.132-.0156-.108-.0042-.214.0304-.3.0975-.091.0755-.162.1736-.204.2847h-.492c.067-.3709.195-.6543.382-.8502.089-.0963.197-.1725.318-.2236s.251-.0759.382-.0728c.064 0 .122.0065.181.0124.054.0091.106.0182.152.0338l.55.1618c.087.0217.15.036.19.0429.037.0083.075.0124.113.0124.114.0029.225-.0328.315-.1014.089-.0676.159-.1705.211-.3088h.492zm12.181 6.4967c.002.5696-.109 1.134-.327 1.6601-.217.52-.533.9817-.948 1.3852-.412.4013-.9.7181-1.434.9327-.533.2157-1.103.3267-1.679.327-1.159.0013-2.273-.4508-3.103-1.2597-.409-.3946-.734-.8677-.957-1.391-.22-.5233-.332-1.0863-.327-1.6543 0-.5837.11-1.1401.327-1.6627.221-.5253.546-.9999.957-1.3942.831-.8048 1.944-1.2535 3.101-1.2506.578 0 1.143.1066 1.684.3237.532.212 1.018.527 1.428.9269.408.3921.731.8646.948 1.3877.217.5205.326 1.076.327 1.6666zm-4.388 3.3846c.45 0 .875-.0852 1.281-.2568.412-.1727.785-.4252 1.098-.7429.315-.3111.565-.6822.734-1.0914.337-.8365.337-1.7712 0-2.6078-.169-.4103-.417-.7834-.73-1.0978-.312-.3142-.682-.5634-1.091-.733-.408-.1696-.846-.2563-1.288-.255-.453 0-.89.0864-1.297.2541-.406.169-.775.4189-1.082.7345-.315.3157-.564.6906-.734 1.1031-.168.4146-.255.8582-.254 1.3058-.003.4439.082.8839.252 1.294s.42.7819.736 1.0935c.309.3182.679.5707 1.087.7425.409.1718.848.2593 1.292.2572z" fill="#001b3c"/></g></g></g></g></svg>

<svg width="130" height="26" viewBox="0 0 130 26" fill="none" xmlns="http://www.w3.org/2000/svg">
<g clip-path="url(#clip0_2418_8341)">
<mask id="mask0_2418_8341" style="mask-type:luminance" maskUnits="userSpaceOnUse" x="0" y="0" width="130" height="26">
<path d="M0 0H130V26H0V0Z" fill="white"/>
</mask>
<g mask="url(#mask0_2418_8341)">
<mask id="mask1_2418_8341" style="mask-type:luminance" maskUnits="userSpaceOnUse" x="0" y="0" width="130" height="26">
<path d="M0 0H130V26H0V0Z" fill="white"/>
</mask>
<g mask="url(#mask1_2418_8341)">
<mask id="mask2_2418_8341" style="mask-type:luminance" maskUnits="userSpaceOnUse" x="0" y="0" width="130" height="27">
<path d="M0 0H130V26.0072H0V0Z" fill="white"/>
</mask>
<g mask="url(#mask2_2418_8341)">
<path d="M1.98038 3.45743C2.42601 3.45743 2.85339 3.2804 3.1685 2.9653C3.4836 2.65019 3.66063 2.22281 3.66063 1.77718C3.66063 1.33155 3.4836 0.904172 3.1685 0.589064C2.85339 0.273956 2.42601 0.09693 1.98038 0.09693C1.75961 0.0963309 1.54089 0.13933 1.33677 0.223461C1.13265 0.307592 0.94716 0.431198 0.790928 0.587189C0.634696 0.743179 0.510803 0.928483 0.426356 1.13247C0.34191 1.33645 0.298572 1.55511 0.298829 1.77588C0.299345 2.2217 0.476674 2.64911 0.791914 2.96434C1.10715 3.27959 1.53456 3.45691 1.98038 3.45743ZM59.9818 16.2371H62.3823C62.4375 15.8341 62.4616 15.4181 62.4616 14.9956C62.4616 9.54143 58.0039 5.08373 52.5432 5.08373C47.5324 5.08373 43.3717 8.83813 42.7172 13.6657V0.12488H40.2342V8.45593C38.4213 6.39218 35.7557 5.08048 32.7956 5.08048C27.8309 5.08048 23.6969 8.77378 22.9968 13.5526V5.08048H20.5138V8.45593C18.7289 6.43183 16.1361 5.13248 13.2501 5.08048H13.0759C8.09493 5.16953 3.83613 8.94798 3.23423 13.782V5.12078H0.729779V24.9445H3.23423V16.2065C3.83938 21.0432 8.09818 24.8255 13.0791 24.9139H13.2533C16.1361 24.8619 18.7322 23.5684 20.5177 21.545V24.9139H23.0001V16.4392C23.7034 21.2232 27.8367 24.9139 32.7988 24.9139C35.7583 24.9139 38.4246 23.6087 40.2374 21.545V24.9139H42.7204V16.3255C43.3743 21.166 47.5382 24.9146 52.5458 24.9146C56.6337 24.9146 60.1528 22.4199 61.6718 18.8735H58.8872C57.5755 21.0074 55.2212 22.4322 52.5458 22.4322C48.8681 22.4322 45.8073 19.7445 45.208 16.2345H59.9844L59.9818 16.2371ZM13.1643 22.4342C9.10113 22.3854 5.63728 19.0685 5.63728 14.9956C5.63728 10.9233 9.10113 7.61223 13.1643 7.56348C17.2183 7.60898 20.5145 10.9357 20.5145 14.9956C20.5145 19.0561 17.219 22.3861 13.1643 22.4342ZM32.7956 22.4342C28.7084 22.4342 25.3635 19.099 25.3635 14.9956C25.3635 10.8928 28.7084 7.56348 32.7956 7.56348C36.8841 7.56348 40.2342 10.9084 40.2342 14.9956C40.2342 19.0841 36.8958 22.4342 32.7956 22.4342ZM52.5432 7.56348C56.2157 7.56348 59.2818 10.2538 59.8817 13.7547H45.2054C45.804 10.2538 48.8655 7.56348 52.5432 7.56348ZM72.1446 13.2438V5.03823H76.4704V5.92743H73.1196V8.28173H76.4704V9.18978H73.1196V12.3358H76.4704V13.2438H72.1446ZM81.112 8.68863C81.647 8.91743 82.0474 9.22033 82.3191 9.59668C82.5914 9.97238 82.726 10.4222 82.726 10.9357C82.7251 11.691 82.4846 12.2994 82.0045 12.7609C81.5243 13.2224 80.8884 13.4527 80.0967 13.4518C79.4489 13.4518 78.9068 13.2867 78.4704 12.9565C78.0328 12.6259 77.7372 12.1562 77.5838 11.5473L78.4704 11.1099C78.5887 11.6082 78.7852 11.9843 79.06 12.2383C79.3356 12.495 79.6781 12.6231 80.0935 12.6231C80.5831 12.6231 80.9796 12.4825 81.283 12.2012C81.585 11.9196 81.7358 11.5527 81.7354 11.1008C81.7354 10.7342 81.6314 10.4157 81.4175 10.144C81.2069 9.87141 80.888 9.64196 80.4607 9.45563L79.4636 9.03053C78.9194 8.8039 78.5127 8.51053 78.2436 8.15043C77.9777 7.79293 77.8432 7.36133 77.8432 6.86343C77.8432 6.27908 78.0603 5.79938 78.4945 5.41718C78.9287 5.03541 79.482 4.84475 80.1546 4.84518C80.6477 4.84518 81.0748 4.94918 81.4357 5.15718C81.7965 5.36843 82.0779 5.67393 82.2794 6.08018L81.4728 6.59693C81.2895 6.27973 81.0834 6.04356 80.8546 5.88843C80.6271 5.7327 80.3568 5.6514 80.0811 5.65573C79.7145 5.65616 79.4151 5.76818 79.1828 5.99178C78.9501 6.21473 78.8312 6.50268 78.8312 6.84783C78.8312 7.14163 78.9228 7.39188 79.1003 7.60638C79.2803 7.82023 79.5585 8.00678 79.9349 8.17188L81.1055 8.68863H81.112ZM90.6846 7.00058C90.2928 6.57591 89.874 6.2611 89.4281 6.05613C88.9816 5.85138 88.4921 5.75063 87.9539 5.75063C87.5177 5.75212 87.0862 5.84142 86.6851 6.01323C86.2816 6.18307 85.9166 6.43268 85.612 6.74708C85.306 7.05867 85.0659 7.42873 84.9061 7.83518C84.7453 8.26012 84.6655 8.71141 84.6708 9.16573C84.6699 9.54706 84.7167 9.8985 84.8112 10.22C84.9061 10.5411 85.0432 10.8375 85.2298 11.1066C85.5427 11.5579 85.959 11.9279 86.444 12.1856C86.9223 12.4384 87.4558 12.5689 87.9968 12.5652C88.5014 12.5695 89.0002 12.4586 89.4554 12.2409C89.9046 12.0238 90.3115 11.7001 90.6846 11.2724V12.5685C89.8799 13.154 88.9095 13.4678 87.9143 13.4642C87.0493 13.464 86.2048 13.2005 85.493 12.7089C84.8942 12.2929 84.4377 11.7822 84.1235 11.1768C83.8082 10.5723 83.6496 9.90543 83.6496 9.18393C83.6496 8.55083 83.7536 7.97883 83.9675 7.45948C84.1884 6.92775 84.5173 6.44767 84.9334 6.04963C85.3337 5.66038 85.8063 5.35303 86.3244 5.14483C86.832 4.94333 87.3884 4.84583 87.991 4.84583C88.4592 4.84374 88.9246 4.91682 89.3696 5.06228C89.8138 5.20615 90.253 5.42931 90.6872 5.73178V7.00383L90.6846 7.00058ZM93.3015 5.03758V10.144C93.3019 10.9721 93.4783 11.5805 93.8306 11.9692C94.1822 12.3572 94.7386 12.5529 95.4907 12.5529C96.2427 12.5529 96.7991 12.3579 97.154 11.9692C97.5059 11.5805 97.6821 10.9721 97.6825 10.144V5.03758H98.6731V10.1433C98.6735 11.2518 98.4096 12.0823 97.8814 12.6348C97.3519 13.1851 96.5549 13.4603 95.4907 13.4603C94.4266 13.4603 93.6349 13.1853 93.1058 12.6348C92.5763 12.0844 92.3113 11.254 92.3109 10.1433V5.03758H93.3015ZM100.615 13.2438V5.03823H104.941V5.92743H101.59V8.28173H104.941V9.18978H101.59V12.3358H104.941V13.2438H100.615ZM106.595 13.2438V5.03823H107.57V12.3143H110.671V13.2438H106.595ZM114.425 4.71388L118.158 13.2438H117.1L116.037 10.7283H112.829L111.765 13.2438H110.707L114.428 4.71388H114.425ZM114.425 6.87188L113.119 9.89308H115.73L114.425 6.87188ZM72.1414 24.8899V16.683H73.7157C74.8805 16.683 75.7034 16.7415 76.1772 16.8604C76.6312 16.9683 77.0579 17.1691 77.4304 17.45C77.902 17.8128 78.271 18.2922 78.501 18.841C78.7428 19.4056 78.8639 20.056 78.8643 20.7923C78.8643 21.5287 78.7454 22.1703 78.5036 22.7332C78.273 23.2816 77.9031 23.7602 77.4304 24.1216C77.0729 24.3965 76.6634 24.5954 76.2078 24.7118C75.7493 24.8301 75.0358 24.889 74.0673 24.8886H72.1381L72.1414 24.8899ZM73.1287 23.9695H73.7527C74.762 23.9699 75.4611 23.9259 75.8503 23.8375C76.2385 23.7491 76.5616 23.5994 76.8194 23.3884C77.1627 23.0971 77.4265 22.7237 77.5864 22.3029C77.7615 21.8596 77.8492 21.3521 77.8497 20.7806C77.8497 20.2086 77.7639 19.7016 77.5897 19.2667C77.4279 18.8479 77.163 18.4768 76.8194 18.1877C76.562 17.9706 76.2318 17.8172 75.8347 17.7262C75.4373 17.6344 74.7433 17.5884 73.7527 17.5884H73.1287V23.9721V23.9695ZM80.4666 24.8892V16.6836H84.793V17.5735H81.4422V19.9271H84.793V20.8352H81.4422V23.9812H84.793V24.8892H80.4666ZM89.8311 24.8892V16.6836H91.4061C92.5713 16.6836 93.3927 16.7428 93.8702 16.8611C94.3242 16.969 94.7509 17.1697 95.1234 17.4506C95.595 17.8134 95.964 18.2929 96.194 18.8416C96.4358 19.4063 96.5569 20.0567 96.5573 20.7929C96.5573 21.5294 96.4384 22.1709 96.1966 22.7338C95.9663 23.2824 95.5963 23.7611 95.1234 24.1222C94.7659 24.3972 94.3564 24.5961 93.8975 24.7124C93.4391 24.8307 92.7267 24.8897 91.7603 24.8892H89.8311ZM90.8191 23.9695H91.4425C92.4521 23.9699 93.1513 23.9259 93.54 23.8375C93.9287 23.7491 94.2518 23.5994 94.5092 23.3884C94.8527 23.0972 95.1168 22.7238 95.2768 22.3029C95.4536 21.8596 95.5394 21.3519 95.5394 20.7806C95.5394 20.2086 95.4536 19.7016 95.2794 19.2667C95.1177 18.8479 94.8527 18.4768 94.5092 18.1877C94.2524 17.9706 93.9222 17.8172 93.5244 17.7262C93.1271 17.6344 92.4331 17.5884 91.4425 17.5884H90.8191V23.9721V23.9695ZM98.1661 24.8892V16.6836H99.1411V24.8886L98.1661 24.8892ZM104.112 20.334C104.647 20.5633 105.049 20.8659 105.32 21.2421C105.592 21.6178 105.727 22.0676 105.727 22.5811C105.727 23.3364 105.488 23.9448 105.005 24.4063C104.525 24.8673 103.889 25.0977 103.098 25.0972C102.452 25.0972 101.908 24.9321 101.471 24.6019C101.033 24.2713 100.737 23.8016 100.584 23.1927L101.471 22.7553C101.59 23.2536 101.787 23.6297 102.061 23.8837C102.336 24.1406 102.681 24.2691 103.094 24.2691C103.584 24.2691 103.981 24.1283 104.284 23.8466C104.586 23.5658 104.737 23.199 104.736 22.7462C104.736 22.38 104.63 22.0611 104.418 21.7894C104.207 21.5172 103.889 21.288 103.464 21.1017L102.468 20.6766C101.924 20.4504 101.517 20.1568 101.248 19.7958C100.979 19.4383 100.847 19.0074 100.847 18.5088C100.847 17.9245 101.064 17.4448 101.499 17.0626C101.933 16.6808 102.486 16.4901 103.159 16.4906C103.651 16.4906 104.078 16.5946 104.44 16.8026C104.801 17.0138 105.081 17.3193 105.284 17.7256L104.476 18.243C104.293 17.9253 104.088 17.6887 103.859 17.5332C103.631 17.3781 103.361 17.297 103.085 17.3011C102.718 17.3016 102.419 17.4136 102.186 17.6372C101.954 17.8608 101.835 18.1481 101.835 18.4932C101.835 18.787 101.923 19.0379 102.104 19.2518C102.284 19.4656 102.562 19.6522 102.938 19.8173L104.11 20.334H104.112ZM107.026 24.8892V16.6836H111.353V17.5735H108.001V19.9271H111.353V20.8352H108.001V23.9812H111.353V24.8892H107.026ZM113.006 24.8892V16.3593L119.008 22.9178V16.6836H119.937V25.2071L113.936 18.722V24.886H113.006V24.8892ZM118.118 14.3079C118.042 14.6901 117.91 14.9804 117.724 15.1789C117.634 15.2767 117.524 15.3541 117.402 15.4059C117.28 15.4577 117.148 15.4827 117.015 15.4792C116.966 15.4792 116.91 15.4729 116.846 15.4603C116.778 15.4492 116.711 15.434 116.645 15.4148L116.107 15.2679C116.06 15.2531 116.012 15.2409 115.963 15.2315C115.92 15.2218 115.876 15.2166 115.831 15.2159C115.723 15.2117 115.617 15.2463 115.531 15.3134C115.44 15.3889 115.369 15.487 115.327 15.5981H114.835C114.902 15.2272 115.03 14.9438 115.217 14.7479C115.306 14.6516 115.414 14.5754 115.535 14.5243C115.656 14.4732 115.786 14.4484 115.917 14.4515C115.981 14.4515 116.039 14.458 116.098 14.4639C116.152 14.473 116.204 14.4821 116.25 14.4977L116.8 14.6595C116.887 14.6812 116.95 14.6955 116.99 14.7024C117.027 14.7107 117.065 14.7148 117.103 14.7148C117.217 14.7177 117.328 14.682 117.418 14.6134C117.507 14.5458 117.577 14.4429 117.629 14.3046H118.121L118.118 14.3079ZM130.299 20.8046C130.301 21.3742 130.19 21.9386 129.972 22.4647C129.755 22.9847 129.439 23.4464 129.024 23.8499C128.612 24.2512 128.124 24.568 127.59 24.7826C127.057 24.9983 126.487 25.1093 125.911 25.1096C124.752 25.1109 123.638 24.6588 122.808 23.8499C122.399 23.4553 122.074 22.9822 121.851 22.4589C121.631 21.9356 121.519 21.3726 121.524 20.8046C121.524 20.2209 121.634 19.6645 121.851 19.1419C122.072 18.6166 122.397 18.142 122.808 17.7477C123.639 16.9429 124.752 16.4942 125.909 16.4971C126.487 16.4971 127.052 16.6037 127.593 16.8208C128.125 17.0328 128.611 17.3478 129.021 17.7477C129.429 18.1398 129.752 18.6123 129.969 19.1354C130.186 19.6559 130.295 20.2114 130.296 20.802L130.299 20.8046ZM125.911 24.1892C126.361 24.1892 126.786 24.104 127.192 23.9324C127.604 23.7597 127.977 23.5072 128.29 23.1895C128.605 22.8784 128.855 22.5073 129.024 22.0981C129.361 21.2616 129.361 20.3269 129.024 19.4903C128.855 19.08 128.607 18.7069 128.294 18.3925C127.982 18.0783 127.612 17.8291 127.203 17.6595C126.795 17.4899 126.357 17.4032 125.915 17.4045C125.462 17.4045 125.025 17.4909 124.618 17.6586C124.212 17.8276 123.843 18.0775 123.536 18.3931C123.221 18.7088 122.972 19.0837 122.802 19.4962C122.634 19.9108 122.547 20.3544 122.548 20.802C122.545 21.2459 122.63 21.6859 122.8 22.096C122.97 22.5061 123.22 22.8779 123.536 23.1895C123.845 23.5077 124.215 23.7602 124.623 23.932C125.032 24.1038 125.471 24.1913 125.915 24.1892H125.911Z" fill="#001B3C"/>
</g>
</g>
</g>
</g>
<defs>
<clipPath id="clip0_2418_8341">
<rect width="130" height="26" fill="white"/>
</clipPath>
</defs>
</svg>
